X:1
T:Waltz
T:Waltz
T:Opus 39, No. 15
T:Johannes Brahms
T:Arranged by Larry Clark
C:Johannes Brahms
Z:Arranged by Larry Clark
%%score 1 2
L:1/8
Q:1/4=96
M:3/4
K:Eb
V:1 treble nm="Flute" snm="Fl."
V:2 treble transpose=-7 nm="Horn in F" snm="F Hn."
V:1
!mf! g3"^Flowing" e eg | g3 e (eg) | (a"^rit."b/a/ g2 f2) | (g2 f4) || %4
!p!"^A Tempo" g3"_dolce" e (eg) | g3!<(! e (eg)!<)! |!>(! ((ab/a/ g2 f2))!>)! | g3 e (eg) | %8
 g3 e (eb) | c'3!<(! g (gb)!<)! |!>(! (d'c') (b2 =a2!>)! | b3) d (dg) | g3 e (eg) | %13
!<(! g3 e (eg)!<)! |!>(! (ab/a/ g2 f2)!>)! | (g3 e (eb)) | c'3 g (gb) |!<(! c'3 g (gb)!<)! | %18
!>(! (d'c') (b2 =a2!>)! | b3) g (gb) |"_cresc." b3 f (fb) | b3 g (gb) | e'3 b (be') | %23
 e'3 c' (c'e') |!f! c'3"^rit." c' (c'e') | (e'd') c'2 b2 |!p![Q:1/4=114]"^A Tempo" g3 e (eg) | %27
 g3!<(! e (eg)!<)! |!>(! (ab/a/ g2 f2!>)! | g3) e (eb) | c'3 g (gb) |!<(! c'3 g (gb)!<)! | %32
!>(! (e'b) a2 f2!>)! | e3!p! g (gb) |"_cresc." b3 f (fb) | b3 g (gb) | e'3 b (be') | %37
 e'3 c' (c'e') |!f! c'3 c' (c'e') | (e'd') c'2 b2 | (b"^molto rit."a) g2 f2 | %41
!p!"^A Tempo" g3[Q:1/4=50]"_dolce" e (eg) | g3 e (eg) | (ab/a/ g2 f2 | g3) e (eb) | c'3 g (gb) | %46
 c'3"^rit." g (gb) | (e'b) a2 f2 | e6 |] %49
V:2
[K:Bb]!mf! F3 D DF | F3 D (DF) |"^rit." (G2 F2 E2) | (F2 E4) ||!p! F3"_dolce" D (DF) | %5
 F3!<(! D (DF)!<)! |!>(! (G2 F2 E2)!>)! | F3 B (Bd) | B3 B (Bd) | B3!<(! B (Bd)!<)! | %10
!>(! (c2 A2 G2!>)! | A3) F FF | F3 D (DF) |!<(! F3 D (DF)!<)! |!>(! (G2 F2 E2)!>)! | (F3 B) (Bd) | %16
 B3 B (Bd) |!<(! B3 B (Bd)!<)! |!>(! (c2 A2 G2)!>)! | (A3 F Fd) |"_cresc." A3 A (Ae) | d3 B (Bd) | %22
 d3 d (dG) | G3 e (eG) |!f! e3 e (eG) | c2 B2 A2 |!p! F3 D (DF) | F3!<(! D (DF)!<)! | %28
!>(! (G2 F2 E2)!>)! | F3 B (Bd) | F3 B (Bd) |!<(! F3 B (Bd)!<)! |!>(! d2 A2 E2!>)! | D3!p! B (Bd) | %34
"_cresc." A3 A (Ae) | d3 B (Bd) | d3 d (dG) | G3 e (eG) |!f! e3 e (eG) | c2 B2 A2 | %40
"^molto rit." A2 F2 E2 |!p! F3"_dolce" D (DF) | F3 D (DF) | (G2 F2 E2 | F3) B (Bd) | F3 B (Bd) | %46
 F3"^rit." B (Bd) | d2 A2 E2 | D6 |] %49

